X:107
T:Wandeling
C:Traditioneel
O:Kampenhout, Vlaanderen
Z:Bert Van Vreckem <http://flanders.blackmill.net/music/>
M:2/4
L:1/8
K:G
[Q:"Adagio"]z2 D2|:G2 G2|G>F G>A|(B4|G)z (3DGA|B2 B2|B>A B>c|(d4|B)z GB|
d2d2|(d3/2e/4d/4) cB|cz c2|(c3/2d/4c/4) BA|B2 AG|A2 FA|dc BA|[1GF ED:|[2G2 Gz||
|:[Q:"Allegro"]DB (B/A/G)|e^c d2|Dc (c/B/A)|DB (B/A/G)|DB (B/A/G)|e^c d2|Dc (c/d/c/A/)|GG G!D.C.!z:|
